X: 3
T: A Trip to Stratford upon Avon
R: reel, march
M: 2/4
L: 1/8
Z: 2010 John Chambers <jc:trillian.mit.edu>
B: Longman ed. "Twenty Four Country Dances", p.26 London 1770
K: D
|: f/e/ | dAAA | B2A2 | BdFD | GE Ef/e/ | B2A2 | Bgfe | fdd :|
|: f/g/ | affd | bgge | affd | e/d/c/B/ Af/g/ | affd | bgge | fa AB/c/ | d2 D :|

